X:6137
T:Snowy Path
O:england
M:3/4
L:1/8
Q:1/4=150
C:?
S:Altan
K:D
D>F A>F A>F|G>B d>e (3dBG|F>A B>F A>F|E>D E>F (3GFE|
D>F A>F A>F|G>B d>e (3dBG|F>A B>F A>F|E>D E>F (3GAB||
c2 c>e d>c|B>G B>c d>e|f2 f>e d>B|A>G F>G A>B|
c2 c>e d>c|B>G B>c d>e|d>A B>F A>F|E>D E>F (3GFE||


